X:1
T:Medley of Christmas Hymns
T:John O'Reilly & Mark Williams
T:Flute 3
L:1/8
M:4/4
K:Eb
V:1 treble nm="Flute"
V:1
 z2 | z8 | z8 | z8 | z8 | z8 | z4 z2 c2 | c6 d2 | e4 d2 c2 | B3 c d2 c2 | B2 e2 c4 | A4 B2 B2 | %12
 E4 z2 e2 | d3 c B2 c2 | B3 =A B4 | A4 B2 z2 | c6 B2 | B4 A4 | B4 c2 d2 | c6 z2 || c4 B4 | %21
 A4 B2 B2 | c6 B2 | B4 A4 | A4 c2 d2 | c3 d e2 c2 | c6 d2 | e4 d2 c2 | B3 c d2 c2 | B2 e2 c4 | %30
 A4 B2 B2 | E4 z2 e2 | d3 c B2 c2 | B3 =A B4 | A4 B2 B2 | c6 B2 | B4 A4 | B4 c2 d2 | c6 z2 || %39
[M:3/4] z6 | z6 | z6 | z6 | z6 | z6 | z6 | z6 || z6 | z6 | z6 | z6 | z6 | z6 | z6 | z6 || c4 d2 | %56
 c6 | B6 | z2 ef ed :| e2 B2 e2 | d2 B2 d2 | e2 B2 e2 | g2 f2 e2 | d2 e2 d2 | c4 B2 | c6 | B4 d2 | %67
 G6 | G3 A B2 | A6 | G4 EF | G6 | G3 A B2 | A6 | [Gg]4 ed | z6 | B2 d2 e2 | c3 d e2 | d4 e2 | %79
 [Gg]4 [Gg]2 | [Gg]3 [Aa] [Bb]2 | [Aa]6 | [Gg]6 |] %83

